svgs/solid/money-check-dollar-pen.svg

<svg xmlns="http://www.w3.org/2000/svg" viewBox="0 0 640 512"><!--! Font Awesome Pro 6.4.2 by @fontawesome - https://fontawesome.com License - https://fontawesome.com/license (Commercial License) Copyright 2023 Fonticons, Inc. --><path d="M0 128C0 92.7 28.7 64 64 64H512c35.3 0 64 28.7 64 64v64.6c-15.2 2-29.8 8.8-41.4 20.5L353.3 394.3c-8.2 8.2-14 18.5-16.8 29.7l-6 23.9H64c-35.3 0-64-28.7-64-64V128zM256 304c0 8.8 7.2 16 16 16h64c8.8 0 16-7.2 16-16s-7.2-16-16-16H272c-8.8 0-16 7.2-16 16zm16-112c-8.8 0-16 7.2-16 16s7.2 16 16 16H432c8.8 0 16-7.2 16-16s-7.2-16-16-16H272zM144 139.9c-11.1 0-20.1 9-20.1 20.1v6c-5.6 1.2-10.9 2.9-15.9 5.1c-15 6.8-27.9 19.4-31.1 37.7c-1.8 10.2-.8 20 3.4 29c4.2 8.8 10.7 15 17.3 19.5c11.6 7.9 26.9 12.5 38.6 16l2.2 .7c13.9 4.2 23.4 7.4 29.3 11.7c2.5 1.8 3.4 3.2 3.7 4c.3 .8 .9 2.6 .2 6.7c-.6 3.5-2.5 6.4-8 8.8c-6.1 2.6-16 3.9-28.8 1.9c-6-1-16.7-4.6-26.2-7.9l0 0 0 0c-2.2-.7-4.3-1.5-6.4-2.1c-10.5-3.5-21.8 2.2-25.3 12.7s2.2 21.8 12.7 25.3c1.2 .4 2.7 .9 4.4 1.5c7.9 2.7 20.3 6.9 29.8 9.1V352c0 11.1 9 20.1 20.1 20.1s20.1-9 20.1-20.1v-5.5c5.3-1 10.5-2.5 15.4-4.6c15.7-6.7 28.4-19.7 31.6-38.7c1.8-10.4 1-20.3-3-29.4c-3.9-9-10.2-15.6-16.9-20.5c-12.2-8.8-28.3-13.7-40.4-17.4l-.8-.2c-14.2-4.3-23.8-7.3-29.9-11.4c-2.6-1.8-3.4-3-3.6-3.5c-.2-.3-.7-1.6-.1-5c.3-1.9 1.9-5.2 8.2-8.1c6.4-2.9 16.4-4.5 28.6-2.6c4.3 .7 17.9 3.3 21.7 4.3c10.7 2.8 21.6-3.5 24.5-14.2s-3.5-21.6-14.2-24.5c-4.4-1.2-14.4-3.2-21-4.4V160c0-11.1-9-20.1-20.1-20.1zm469.8 95.8l14.4 14.4c15.6 15.6 15.6 40.9 0 56.6l-29.4 29.4-71-71 29.4-29.4c15.6-15.6 40.9-15.6 56.6 0zM375.9 417L505.1 287.8l71 71L446.9 487.9c-4.1 4.1-9.2 7-14.9 8.4l-60.1 15c-5.5 1.4-11.2-.2-15.2-4.2s-5.6-9.7-4.2-15.2l15-60.1c1.4-5.6 4.3-10.8 8.4-14.9z"/></svg>

<svg xmlns="http://www.w3.org/2000/svg" viewBox="0 0 640 512"><!--! Font Awesome Pro 6.1.1 by @fontawesome - https://fontawesome.com License - https://fontawesome.com/license (Commercial License) Copyright 2022 Fonticons, Inc. --><path d="M.0003 128C.0003 92.65 28.65 64 64 64H512C547.3 64 576 92.65 576 128V192.6C560.8 194.6 546.2 201.4 534.6 213.1L353.3 394.3C345.1 402.5 339.3 412.8 336.5 424.1L330.5 448H64C28.65 448 0 419.3 0 384L.0003 128zM272 320H336C344.8 320 352 312.8 352 304C352 295.2 344.8 288 336 288H272C263.2 288 256 295.2 256 304C256 312.8 263.2 320 272 320zM272 192C263.2 192 256 199.2 256 208C256 216.8 263.2 224 272 224H432C440.8 224 448 216.8 448 208C448 199.2 440.8 192 432 192H272zM123.9 160V166C118.3 167.2 112.1 168.9 108 171.1C93.06 177.9 80.07 190.5 76.91 208.8C75.15 219 76.08 228.9 80.32 237.8C84.47 246.6 91 252.8 97.63 257.3C109.2 265.2 124.5 269.8 136.2 273.3L138.4 273.9C152.4 278.2 161.8 281.3 167.7 285.6C170.2 287.4 171.1 288.8 171.4 289.7C171.8 290.5 172.4 292.3 171.7 296.3C171.1 299.8 169.2 302.8 163.7 305.1C157.6 307.7 147.7 309 134.9 307C128.9 306 118.2 302.4 108.7 299.2C106.5 298.4 104.3 297.7 102.3 297C91.84 293.5 80.51 299.2 77.02 309.7C73.53 320.2 79.2 331.5 89.68 334.1C90.89 335.4 92.39 335.9 94.11 336.5C101.1 339.2 114.4 343.4 123.9 345.6V352C123.9 363.1 132.9 372.1 143.1 372.1C155.1 372.1 164.1 363.1 164.1 352V346.5C169.4 345.5 174.6 343.1 179.4 341.9C195.2 335.2 207.8 322.2 211.1 303.2C212.9 292.8 212.1 282.8 208.1 273.7C204.2 264.7 197.9 258.1 191.2 253.3C179.1 244.4 162.9 239.6 150.8 235.9L149.1 235.7C135.8 231.4 126.2 228.4 120.1 224.2C117.5 222.4 116.7 221.2 116.5 220.7C116.3 220.3 115.7 219.1 116.3 215.7C116.7 213.7 118.2 210.4 124.5 207.6C130.1 204.7 140.9 203.1 153.2 204.1C157.5 205.7 171 208.3 174.9 209.3C185.5 212.2 196.5 205.8 199.3 195.1C202.2 184.5 195.8 173.5 185.1 170.7C180.7 169.5 170.7 167.5 164.1 166.3V160C164.1 148.9 155.1 139.9 144 139.9C132.9 139.9 123.9 148.9 123.9 160V160zM628.1 250.1C643.8 265.7 643.8 291 628.1 306.7L598.7 336.1L527.8 265.1L557.2 235.7C572.8 220.1 598.1 220.1 613.8 235.7L628.1 250.1zM375.9 416.1L505.1 287.8L576.1 358.7L446.9 487.9C442.8 492 437.6 494.9 432 496.3L371.9 511.4C366.4 512.7 360.7 511.1 356.7 507.2C352.7 503.2 351.1 497.4 352.5 491.1L367.5 431.8C368.9 426.2 371.8 421.1 375.9 416.1V416.1z"/></svg>
